X:1
T:O Magnum Mysterium
T:O Magnum Mysterium
T:Francis POULENC
C:Francis Poulenc
%%score [ 1 2 3 4 ]
L:1/8
Q:1/4=60
M:3/4
K:C
V:1 treble nm="Soprano" snm="S."
V:2 treble nm="Alto" snm="A."
V:3 treble-8 nm="Tenor" snm="T."
V:4 bass nm="Bass" snm="B."
V:1
"^Très calme et doux" z6 | z6 | z6 | z6 | z6 |"^1""_bien lié et bien doux"!pp! f2 (_e_d) c_B | %6
w: |||||O * ma- gnum mys-|
 fc c2- c/ z/ c | _Bc _df _e z | _BA!<(! c2 F z!<)! |"^2"!mf! _d2 cd _e_B | c/ z/ _d _G2 F z | %11
w: te- ri- um _ et|ad- mi- ra- bi- le|sa- cra- men- tum|ut a- ni- ma- li-|a vi- de- rent|
!p! _EF _G_B A2- |[M:4/4] A/ z/!f! _B c2 _d z!>(! Bc |[M:3/4] F3 F!>)!!pp! F z | %14
w: Do- mi- num na- tum|_ ja- cen- tem in prae-|se- pi- o|
"^3" f2 (_e_d) c_B | fc c2- c/ z/ c | Bc _ed _A z | Gc!<(! B2 B z!<)! |!mf! _e2 d^f ge | %19
w: O * ma- gnum mys-|te- ri- um _ et|ad- mi- ra- bi- le|sa- cra- men- tum|ut a- ni- ma- li-|
 d/ z/ _e _B2 A z |!p! ^FG FG A2- |"^4" A/ z/!f! _B c2 d z |[M:4/4] c_BAA!>(! A2-!>)!!p! A/ z/ z | %23
w: a vi- de- rent|Do- mi- num na- tum|_ ja- cen- tem|in prae- se- pi- o *|
"^Bouche fermée""_très doux" (B2 d2 B2 G) z |[M:5/4] (d2 A2 B2 d2 A/) z/ z | %25
w: ||
"^Bouche fermée"!pp! (^f2 ^G2 B2 ^d2 _B2- |[M:3/4] B/) z/!p! g _g2 f z | z6 | %28
w: |* Be- a- ta||
"^5"!pp! f2 (_e_d) c_B | f_c c2- c/ z/ c | _B_e _gf e z | _BA!<(! c2 c z!<)! |!mf! _d2 cd _e_B | %33
w: O * ma- gnum mys-|te- ri- um _ et|ad- mi- ra- bi- le|sa- cra- men- tum|ut a- ni- ma- li-|
 c/ z/ _d _G2 F z |!p! _EF _G_B A2- |"^6" A/ z/!mf! _B c2 _d2- | d/ z/!f! _d _e2 f2- | %37
w: a vi- de- rent|Do- mi- num na- tum|_ ja- cen- tem|_ ja- cen- tem|
[M:4/4] f/ z/!ff! _B !fermata!f2!>(! _e z!>)!!p!"_subito" cB |[M:3/4] F4 F2 | %39
w: _ ja- cen- tem in prae-|se- pi-|
!>(! !fermata!F4-!>)!!pp! F z |] %40
w: o _|
V:2
 z2!ppp! _D3 D | _D2- D/ z/ D D=D | _D2- D/ z/ D CD | D_D C z D_B, | C2 C2- C z | %5
w: O ma-|gnum * mys- te- ri-|um, * et ad- mi-|ra- bi- le sa- cra-|men- tum _|
"_à peine articulé" F4 F2 | F2 F2- F/ z/ F | F2 _G2 F z | F2!<(! F2- F z!<)! |!mf! F2 _A2 F2 | %10
w: mys- te-|ri- um, * mys-|te- ri- um|ma- gnum *|a- ma- li-|
 _E/ z/ F _D2 C z |!p! _DC D_E F2- |[M:4/4] F/ z/!f! F _A2 A z!>(! F_E |[M:3/4] C3 C!>)!!pp! C z | %14
w: a vi- de- rent|Do- mi- num na- tum|_ ja- cen- tem in prae-|se- pi- o|
!ppp! F4 F2 | F2 F2- F/ z/ F | G2 F2 D z | CD!<(!!<(!!<(! G2 G z!<)!!<)!!<)! |!mf! G2 A2 AG | %19
w: mys- te-|ri _ um mys-|te- ri- um|sa- cra- men- tum|a- ni- ma- li-|
 A/ z/ _B _E2 D z |!p! D_E DE D2- | D/ z/!f! D A2 F z |[M:4/4] GDGE!>(! ^F2-!>)!!p! F/ z/ z | %23
w: a vi- de- rent|Do- mi- num na- tum|_ ja- cen- tem|in prae- se- pi- o *|
"^Bouche fermée""_très doux" (E2 G2 ^F2 B,) z |[M:5/4] (^F2 E2 D2 B,2 ^C/) z/!mf! F | %25
w: |* * * * * por-|
"_bien en dehors" ^A2 ^D2 ^F^A, ^G,D _B,2- |[M:3/4] B,/ z/!p! B c2 B z | %27
w: ta- re Do- mi- num Chirs- tum|_ Be- a- ta|
!mf!!>(! _G_E C2-!>)!!p! C z |"_à peine articulé"!ppp! F4 F2 | _A2 A2- A/ z/ A | _E2 E2 E z | %31
w: * vir- go _|mys- te-|ri- um * sa-|cra- men- tum|
 _E2!<(! A,2- A, z!<)! |!mf! F2 A2 F2 | _E/ z/ F _D2 C z |!p! _DC D_E F2- | F/ z/!mf! F _A2 A2- | %36
w: ma- gmun _|a- ma- li-|a vi- de- rent|Do- mi- num na- tum|_ ja- cen- tem|
 A/ z/!f! _A c2 A2- |[M:4/4] A/ z/!ff! F !fermata!_D2!>(! D z!>)!!p! F2 |[M:3/4] C4 C2 | %39
w: _ ja- cen- tem|_ ja- cen- tem in|prae- se-|
!>(! !fermata!D4-!>)!!pp! D z |] %40
w: pi- o|
V:3
 z2!ppp! F3 F | F2- F/ z/ F F_c | F2- F/ z/ F AF | _cF A z FF | _B2 A2- A z | %5
w: O ma-|gnum * mys- te- ri-|um, * et ad- mi-|ra- bi- le sa- cra-|men- tum _|
"_à peine articulé" _d4 d2 | (c2 _dc _B/) z/ c | _d2 f2 _B z | _dc!<(! _B2 A z!<)! | %9
w: mys- te-|ri _ _ um mys-|te- ri- um|sa- cra- men- tum|
!mf! _d_e f2 _B2 | c/ z/ _d _B2 A z |!p! _BA BB c2- |[M:4/4] c/ z/!f! _d _e2 f z!>(! df | %13
w: a- ni- ma- li-|a vi- de- rent|Do- mi- num na- tum|_ ja- cen- tem in prae-|
[M:3/4] _B3 G!>)!!pp! A z |!ppp! _d4 d2 | (c2 _dc _B/) z/ c | d2 c2 B z | %17
w: se- pi- o|mys- te-|ri _ _ um mys-|te- ri- um|
 G_A!<(!!<(! d2 d z!<)!!<)! |!mf! _ef ^f2 de | ^f/ z/ g c2 A z |!p! c_d cd c2- | %21
w: sa- cra- men- tum|a- ni- ma- li- a|* vi- de- rent|Do- mi- num na- tum|
 c/ z/!f! _B c2 d z |[M:4/4] d_e A2!>(! d2-!>)!!p! d/ z/!mf!"_doucement en dehors" d | %23
w: _ ja- cen- tem|in prae- se- pi- o Be-|
 ^f2 B2 (d^F)E z |[M:5/4] Bd^cA B/ z/ B cde z |"^Bouche fermée"!pp! (^d2 B2 d2 B2 =d2- | %26
w: a- ta vir _ go|cu- jus vis- ce- ra me- ru- e- runt||
[M:3/4] d/) z/!p! e a2 d z |!mf!!>(! _B2 (B2!>)!!p! A) z |"_à peine articulé"!ppp! _d4 d2 | %29
w: * Be- a- ta|vir- go _|mys- te-|
 (_c_d) =d2- d/ z/ d | _g2 _G2 g z | c_G!<(! _g2- g z!<)! |!mf! _d_e f2 _B2 | c/ z/ _d _B2 A z | %34
w: ri _ _ um sa-|cra- men- tum|ma- gmun _ _|a- ni- ma- li-|a vi- de- rent|
!p! _BA BB c2- | c/ z/!mf! _d _e2 f2- | f/ z/!f! f _a2 f2- | %37
w: Do- mi- num na- tum|_ ja- cen- tem|_ ja- cen- tem|
[M:4/4] f/ z/!ff! _d !fermata!_g2!>(! g z!>)!!p! _Bc |[M:3/4] _B4 A2 | %39
w: _ ja- cen- tem in prae-|se- pi-|
!>(! !fermata!_B4-!>)!!pp! B z |] %40
w: o _|
V:4
 z2!ppp! _B,,3 B,, | _B,,2- B,,/ z/ B,, B,,G,, | _B,,2- B,,/ z/ B,, _D,B,, | G,,_B,, _D, z B,,D, | %4
w: O ma-|gnum * mys- te- ri-|um, * et ad- mi-|ra- bi- le sa- cra-|
 F,2 F,2- F, z |"_à peine articulé" _B,,4 _B,2 | _A,4- A,/ z/ A, | _G,2 _E,2 G, z | %8
w: men- tum _|mys- te-|ri- um, mys-|te- ri- um|
 _G,2!<(! F,2- F, z!<)! |!mf! _B,2 F,2 _G,2 | _A,/ z/ _B, _E,2 F, z |!p! _G,F, _E,G, F,2- | %12
w: ma- gnum *|a- ma- li-|a vi- de- rent|Do- mi- num na- tum|
[M:4/4] F,/ z/!f! _B, _A,2 _D z!>(! B,_G, |[M:3/4] F,3 F,!>)!!pp! F, z |!ppp! _B,,4 _B,2 | %15
w: _ ja- cen- tem in prae-|se- pi- o|mys- te-|
 _A,4- A,/ z/ A, | G,2 _A,2 B, z | _E,F,!<(! G,2 G, z!<)! |!mf! C2 C2 _B,C | D/ z/ C G,2 ^F, z | %20
w: ri um mys-|te- ri- um|sa- cra- men- tum|a- ni- ma- li-|a vi- de- rent|
!p! A,_B, A,B, ^F,2- | F,/ z/!f! G, =F,2 _B, z |[M:4/4] _E,C, D,2!>(! D,2-!>)!!p! D,/ z/ z | %23
w: Do- mi- num na- tum|_ ja- cen- tem|in prae- se- pi- o|
 (G,2 ^F,2 E,2 D,) z |[M:5/4] G,2 G,2 G,,2 G,2 G, z | %25
w: a- ta vir- go|Be- a- ta vir- go|
"^Bouche fermée"!pp! (B,2 ^A,2 ^G,2 ^F,G, _B,2- |[M:3/4] B,/) z4 z z/ | %27
w: ||
!mf!!>(! _E,_G, F,2-!>)!!p! F, z |"_à peine articulé"!ppp! _B,,4 _B,2 | _B,4- B,/ z/ B, | %30
w: vir- go _ _|mys- te-|ri- um sa-|
 _B,,2 _B,2 B,2 | _B,,2!<(! _B,2- B, z!<)! |!mf! _B,2 F,2 _G,2 | _A,/ z/ _B, _E,2 F, z | %34
w: cra- men- tum|* ma- gmun|a- ma- li-|a vi- de- rent|
!p! _G,F, _E,G, F,2- | F,/ z/!mf! _B, _A,2 _D2- | D/ z/!f! _D _A,2 D2- | %37
w: Do- mi- num na- tum|_ ja- cen- tem|_ ja- cen- tem|
[M:4/4] D/ z/!ff! _B, !fermata!_E,2!>(! E, z!>)!!p! _G,2 |[M:3/4] F,4 F,2 | %39
w: _ ja- cen- tem in|prae- se-|
!>(! !fermata!_B,,4-!>)!!pp! B,, z |] %40
w: pi- o|

